src/components/00-materials/images-raw/Health Kit.svg

<svg width="96" height="96" viewBox="0 0 96 96" fill="none" xmlns="http://www.w3.org/2000/svg">
<path d="M61 24L58 20.5C56.38 18.58 55.4 18 52.61 18H43.39C40.6 18 39.62 18.58 38 20.5L35 24H61ZM60 43H53V36C53 35.7348 52.8946 35.4804 52.7071 35.2929C52.5196 35.1054 52.2652 35 52 35H44C43.7348 35 43.4804 35.1054 43.2929 35.2929C43.1054 35.4804 43 35.7348 43 36V43H36C35.7348 43 35.4804 43.1054 35.2929 43.2929C35.1054 43.4804 35 43.7348 35 44V52C35 52.2652 35.1054 52.5196 35.2929 52.7071C35.4804 52.8946 35.7348 53 36 53H43V60C43 60.2652 43.1054 60.5196 43.2929 60.7071C43.4804 60.8946 43.7348 61 44 61H52C52.2652 61 52.5196 60.8946 52.7071 60.7071C52.8946 60.5196 53 60.2652 53 60V53H60C60.2652 53 60.5196 52.8946 60.7071 52.7071C60.8946 52.5196 61 52.2652 61 52V44C61 43.7348 60.8946 43.4804 60.7071 43.2929C60.5196 43.1054 60.2652 43 60 43Z" stroke="#00008F" stroke-width="2" stroke-linecap="round" stroke-linejoin="round"/>
<path d="M75 24H21C18.2386 24 16 26.2386 16 29V67C16 69.7614 18.2386 72 21 72H75C77.7614 72 80 69.7614 80 67V29C80 26.2386 77.7614 24 75 24Z" stroke="#00008F" stroke-width="2" stroke-linecap="round" stroke-linejoin="round"/>
<path d="M72 72V77H62V72M34 24V27C34 27.7956 33.6839 28.5587 33.1213 29.1213C32.5587 29.6839 31.7956 30 31 30H27C26.2044 30 25.4413 29.6839 24.8787 29.1213C24.3161 28.5587 24 27.7956 24 27V24H34ZM72 24V27C72 27.7956 71.6839 28.5587 71.1213 29.1213C70.5587 29.6839 69.7956 30 69 30H65C64.2044 30 63.4413 29.6839 62.8787 29.1213C62.3161 28.5587 62 27.7956 62 27V24H72ZM34 72V77H24V72H34Z" stroke="#00008F" stroke-width="2" stroke-linecap="round" stroke-linejoin="round"/>
</svg>

<svg width="96" height="96" viewBox="0 0 96 96" fill="none" xmlns="http://www.w3.org/2000/svg"><path d="M61 24l-3-3.5c-1.62-1.92-2.6-2.5-5.39-2.5h-9.22c-2.79 0-3.77.58-5.39 2.5L35 24h26zm-1 19h-7v-7a1 1 0 00-1-1h-8a1 1 0 00-1 1v7h-7a1 1 0 00-1 1v8a1 1 0 001 1h7v7a1 1 0 001 1h8a1 1 0 001-1v-7h7a1 1 0 001-1v-8a1 1 0 00-1-1z" stroke="#00008F" stroke-width="2" stroke-linecap="round" stroke-linejoin="round"/><path d="M75 24H21a5 5 0 00-5 5v38a5 5 0 005 5h54a5 5 0 005-5V29a5 5 0 00-5-5z" stroke="#00008F" stroke-width="2" stroke-linecap="round" stroke-linejoin="round"/><path d="M72 72v5H62v-5M34 24v3a3 3 0 01-3 3h-4a3 3 0 01-3-3v-3h10zm38 0v3a3 3 0 01-3 3h-4a3 3 0 01-3-3v-3h10zM34 72v5H24v-5h10z" stroke="#00008F" stroke-width="2" stroke-linecap="round" stroke-linejoin="round"/></svg>
